/* XPM */
static char *_cf3a1f6505647a5c597552d385bd34aIjK0xdMsS35OEE6Y[] = {
/* columns rows colors chars-per-pixel */
"32 32 141 2 ",
"   c #000000",
".  c #050C03",
"X  c #090D09",
"o  c #091506",
"O  c #0B1A05",
"+  c #0D120D",
"@  c #0D1F08",
"#  c #141D14",
"$  c #3B0A03",
"%  c #391606",
"&  c #3F1108",
"*  c #261E1A",
"=  c #0F240A",
"-  c #122C0B",
";  c #16370F",
":  c #132D10",
">  c #1D291D",
",  c #1B3D15",
"<  c #1F3B1D",
"1  c #232A1D",
"2  c #273418",
"3  c #17282E",
"4  c #1E2E28",
"5  c #193D32",
"6  c #540907",
"7  c #580A06",
"8  c #5B1F13",
"9  c #660A08",
"0  c #6B0C0B",
"q  c #740A0A",
"w  c #41310C",
"e  c #482E1A",
"r  c #582111",
"t  c #463619",
"y  c #42331D",
"u  c #513E1E",
"i  c #702D16",
"p  c #403C3E",
"a  c #0E450B",
"s  c #1B420E",
"d  c #1D4419",
"f  c #20461D",
"g  c #234B1D",
"h  c #245717",
"j  c #22521D",
"k  c #265C1D",
"l  c #29581F",
"z  c #06630A",
"x  c #29631E",
"c  c #2C6B1E",
"v  c #337719",
"b  c #354D22",
"n  c #2A5020",
"m  c #22512F",
"M  c #2D6420",
"N  c #2D6C20",
"B  c #2E7220",
"V  c #307621",
"C  c #347F22",
"Z  c #40540D",
"A  c #5B4416",
"S  c #684C19",
"D  c #476E1B",
"F  c #59601E",
"G  c #4B4131",
"H  c #6C5122",
"J  c #6A5922",
"K  c #725622",
"L  c #7B5D23",
"P  c #132D47",
"I  c #132F4A",
"U  c #1F3D4E",
"Y  c #153C5B",
"T  c #24564E",
"R  c #1B4167",
"E  c #204460",
"W  c #265C67",
"Q  c #214E79",
"!  c #22517F",
"~  c #6A5C45",
"^  c #97100D",
"/  c #F31717",
"(  c #ED1C24",
")  c #8C6C1B",
"_  c #896723",
"`  c #88692E",
"'  c #957129",
"]  c #846939",
"[  c #A57D25",
"{  c #08810D",
"}  c #0B9F10",
"|  c #2F8116",
" . c #36801B",
".. c #3E911F",
"X. c #23AF19",
"o. c #358223",
"O. c #3B8C24",
"+. c #3C9325",
"@. c #419B26",
"#. c #429F28",
"$. c #45A527",
"%. c #43A228",
"&. c #47AC29",
"*. c #49AF29",
"=. c #4BB329",
"-. c #4EBA2B",
";. c #50BF2B",
":. c #51C22B",
">. c #56CB2C",
",. c #59D32E",
"<. c #22B14C",
"1. c #B28626",
"2. c #B98B26",
"3. c #CC9A27",
"4. c #D39F28",
"5. c #D9A83E",
"6. c #978363",
"7. c #DBAC45",
"8. c #DDAF4D",
"9. c #DFB356",
"0. c #E1B65C",
"q. c #E5AA7A",
"w. c #E7BF72",
"e. c #E7C075",
"r. c #E9C279",
"t. c #2800B0",
"y. c #225484",
"u. c #286EAA",
"i. c #2B7ABD",
"p. c #3C32F8",
"a. c #3E49F5",
"s. c #2E85CA",
"d. c #2F8AD3",
"f. c #B4B4B4",
"g. c #C5AB81",
"h. c #D9BA87",
"j. c #EAC788",
"k. c #E0C292",
"l. c #F0CE93",
"z. c #F3D39F",
"x. c white",
/* pixels */
"      h s $.&.  V @.:.j C x c *.*.o =.h @.w ..k.4.4.3.^ o.      ",
"      C :   C ,.  #.C C C C C C C d   ,.  4.4.4.4.4.y 7 C       ",
"        $..     . x C C , C V C C g   j ,.,.,.@ z.4.4.8 C       ",
"            ,.C C ,.C C C C V C ,.C v     ,.h z.z.4.3.i C       ",
"            l *.( ( 2 ,.g M >.l ( ( x C ~ @.b z.z.0.3.8 x       ",
"          , ,.V C ( / % ,.,.n / ( @., c k.c  .) 4.L L 7 j       ",
"      C ,.>.,.C O.,.j j C C C j ,.>.: j C   G z.z.H K Z j       ",
"              ,.> u ,.,.C C :.,.4.  c C ,.  r.z.z.4.J < .       ",
"a         = V O.=.4.1 ,.C k ,.t 4.. >.    z.z.9.H F & x         ",
"&.#.#.            A <.,.N j ,.<.y H <.<.6.z.z.j.| D q x         ",
"#.#.#.#.C .   ,.{ z } ,.C C ,.} <.<.<.z.z.4.8.2.4.$ C +         ",
"#.C #.,.C ,.C       <.C ,.,.<.<.<.z.z.z.,.4.X.2.#.,.,.          ",
"#.#.#.#.C j C C C   4.,.C =.,.4.z.z.z.z.z.4._ 2.C ,.o.,.,       ",
";.,.#.C C C C C C C t x.  * x.  z.z.z.z.4.H S 6 #.;.,.,.j C C - ",
"g R o V C V V C V C     x.x.    z.j.0.4.H H 9 f.#.,.%.-.c C C k ",
"B ,.! d.x C , C C - z.z.    h.z.z.z.4.H H q d ! C j o.,.. C #.,.",
"# #.,.#.+.2 ! j C z.z.z.4.w.g.z.z.z.4.H q C j C j C #.-.>.  ,.,.",
"..,.O.O.V O O . x f.z.z.z.z.z.z.z.f.[ q C d.        #.,.#.#.  @.",
"- l ,.,.,.-.=.,.O.  q.q.q.q.q.q.q.f.r C k +         . B ,.,.O.5 ",
",.,.,.C *.,.,.,.] q.z.z.z.z.z.4.f.q.6 j ! j         . ,.,.#.,.,.",
",.#.#.,.l o.,.,.f.z.z.z.z.z.z.z.4.e N C > j j j       ,.,.,.,.,.",
"#.            f.z.z.z.z.z.z.z.z.f.q C d.C C C B C j     C #.#.#.",
"  p.          4.f.q.q.q.q.q.q.q.1.0 V E C C C C C C C N X     u.",
"p           #.4.q.7.7.7.7.` ' _ q.% ; ! i.k g C C C B k C C k i.",
"a.      = j #.f.z.z.z.z.z.z.4.4.y C P C C C ! > C C V C C C C # ",
"t.    C #.#.  f.z.z.z.z.z.z.z.f.$ C + j C j #.! d.  C C C C > W ",
"  . o.#.#.#.z.z.f.f.f.f.f.f.f.z.y C U     C C #.#.j Q d.  V s.+.",
"c #.#.V O.s.S 4.z.z.z.z.z.z.l.4.$ V P       . x O.c #.B C ! > :.",
"#.o.j C Y m C 4.5.z.z.z.z.e.4.3.$ C I               . N o.d.! ,.",
"k >   C < C f.f.4.z.z.z.z.z.4.f.H > ; >                 d.! ,.,.",
"C d.j C C C j z.q.q.q.q.q.q.q.4.4.0 C >             4 < y.,.,.,.",
"C C C C C k C q.z.z.z.z.z.z.z.q.4.q x g !   3 o d.f i.T o.&.,.,."
};
