/* XPM */
static char *_9f6496a9f974260e351c2560cb7ba79ErKpPNyH4MncKqLt[] = {
/* columns rows colors chars-per-pixel */
"32 32 76 1 ",
"  c gray12",
". c #E60300",
"X c #D23200",
"o c #F83A08",
"O c #ED1C24",
"+ c #966D0A",
"@ c #CA5902",
"# c #EB4C00",
"$ c #FB4F03",
"% c #ED5900",
"& c #F55400",
"* c #F95201",
"= c #FD5D02",
"- c #E44D11",
"; c #FE6101",
": c #FE6C03",
"> c #E8770E",
", c #FE7500",
"< c #FF7E00",
"1 c #F47B0F",
"2 c #FE8502",
"3 c #FE8B00",
"4 c #FC8C0A",
"5 c #FF9000",
"6 c #FE9E02",
"7 c #FE9E0A",
"8 c #FF9A15",
"9 c #F6A301",
"0 c #FEA201",
"q c #FFAD01",
"w c #FDA109",
"e c #FDAD09",
"r c #FEB301",
"t c #FFBC00",
"y c #FCA51D",
"u c #EDB21E",
"i c #D69426",
"p c #E6A323",
"a c #EAA123",
"s c #F2B625",
"d c #FFC200",
"f c #FFC313",
"g c #F5B962",
"h c #FED469",
"j c #FCD66E",
"k c #FED87A",
"l c #AEA494",
"z c #B8AFA1",
"x c #BEB4A7",
"c c #B4B4B4",
"v c #FDD583",
"b c #FED980",
"n c #FEDB88",
"m c #FFD795",
"M c #FFF2B4",
"N c #DFD3C5",
"B c #FFEDC2",
"V c #FDEAC8",
"C c #F9EECB",
"Z c #FFEFCC",
"A c #FFF1C9",
"S c #F5E7D0",
"D c #FCECD0",
"F c #FAEAD5",
"G c #F8ECD6",
"H c #FFEFD6",
"J c #FDEEDA",
"K c #FEEEDD",
"L c #F6F4D6",
"P c #FFF0D4",
"I c #FEF1DA",
"U c #FCF1DC",
"Y c #FFF2E0",
"T c #FEF5E0",
"R c #F9F1EB",
"E c white",
/* pixels */
"cccccccccccccccccccccccccccccccc",
"cccccccccccccccccccccccccccccccc",
"cccccccccccccccccccccccccccccccc",
"cccccccccccccccccccccccccccccccc",
"ccccccccccccKDPHHFxccccccccccccc",
"cccccccccTHMreqeqqqsPNcccccccccc",
"cccccccGKP<<33333333qqVccccccccc",
"ccccccDEEE<<53333330qqewJccccccc",
"cccccPPEEE<<tr6336qq03270Rcccccc",
"ccccUPE<<<<bdrqqqqq3333<29Cccccc",
"cccLm<<<<<<kdr11qqq3333%:00ccccc",
"cccHqgvfhnjfte1O11qq3333=;0acccc",
"cczu33qrtttr1>OOO1qq0333*;60cccc",
"ccIq34Prqqqqq11.1qq6q333*;;6+ccc",
"ccHq33qqqqqqqrq1eqq3q333$*;06ccc",
"ccA033qqqqqqqqqqqq13q332**;60ccc",
"ccBw33qqqqqOqqqqq1O3q33<**;66ccc",
"ccZ0233qq@OOOXqq1OOO-32&**;06ccc",
"ccY9<333qqqO1qqqq3O113,**=;6cccc",
"ccl6:<333q#qXeqe3o313<***;60cccc",
"ccc90:=2333333333332,***;;60cccc",
"cccS0;;&&223333332,=****;00ccccc",
"ccccp0;;*;;:,,,:;&*****;80yccccc",
"ccccc00;;;***********;;666cccccc",
"cccccc706;=;*******;==000ccccccc",
"cccccccw006=;;;;;;=;000ccccccccc",
"cccccccccw97000000000pcccccccccc",
"cccccccccccc70006wiccccccccccccc",
"cccccccccccccccccccccccccccccccc",
"cccccccccccccccccccccccccccccccc",
"cccccccccccccccccccccccccccccccc",
"ccccccccccccccccccccccccccccccc "
};
