/* XPM */
static char *a4b381a648ea40dd95d1669189b3b460WoE8Vq2slOUcroP0[] = {
/* columns rows colors chars-per-pixel */
"32 32 29 1 ",
"  c black",
". c #060504",
"X c #42444B",
"o c #514B43",
"O c #524D4C",
"+ c #535550",
"@ c #624C47",
"# c #615146",
"$ c #715349",
"% c #705848",
"& c #615A53",
"* c #6B5C51",
"= c #725D57",
"- c #F92034",
"; c #FF7E00",
": c #F16A28",
"> c #F5E34A",
", c #FFED4A",
"< c #142097",
"1 c #182392",
"2 c #2F3699",
"3 c #1EA3D3",
"4 c #00B7EF",
"5 c #A0AAA8",
"6 c #B4B4B4",
"7 c #FFA3B1",
"8 c #FDC98D",
"9 c #EBA2C0",
"0 c white",
/* pixels */
"66666666666666666666666666666666",
"6666666666666666666     66666666",
"666666666666666666     666666666",
"66666666666666666  XXX6666666666",
"666666666666666       6666666666",
"666666666666     X        666666",
"666666666    XX       XX   66666",
"6666666666 .X        X  666 6666",
"66666666666X           666666666",
"6666666666 .XX  788888     66666",
"66666666666    78 88  9  6666666",
"666666666666  8780 868  66666666",
"6666666666666 87888888 666666666",
"6666666666666   788888  66666666",
"666666666666 ;;233::%:89 6666666",
"66666666666.;;;23<:5*:98 6666666",
"66666666666.:;;23::0=- 89 666666",
"6666666666 7-;;<<:::$- 98 666666",
"6666666666 7-;;;:::-@   8 666666",
"666666666 21--;;::: &66 <4 66666",
"666666666 77 3<33-:-@ 6 99 66666",
"666666666 77-3<33-::# 66  666666",
"666666666 7.-:<<<3::;: 666666666",
"6666666666 .-::   -:;: 666666666",
"66666666666.::: 66 :;:- 66666666",
"66666666666.::: 66 :;:: 66666666",
"66666666666.-- 666 -;:: 66666666",
"666666666  .,< 6666 @-- 66666666",
"66666666 <,>3< 6666 +3, 66666666",
"66666666   .   6666 O<,3  666666",
"6666666666666666666 o     666666",
"66666666666666666666666666666666"
};
