/* XPM */
static char *_dbd9f621fe640c4d5ad00437149f897yowCYJ2eMj2PWHFl[] = {
/* columns rows colors chars-per-pixel */
"32 32 146 2 ",
"   c black",
".  c #060302",
"X  c #000700",
"o  c #000004",
"O  c #060005",
"+  c #040404",
"@  c #000900",
"#  c #030009",
"$  c #0D000A",
"%  c #150717",
"&  c #140E17",
"*  c #1A041F",
"=  c #1F041F",
"-  c #111111",
";  c #161616",
":  c #1E171F",
">  c #181818",
",  c gray12",
"<  c #211C1F",
"1  c #1C0323",
"2  c #1F0124",
"3  c #210421",
"4  c #220127",
"5  c #240127",
"6  c #230128",
"7  c #24002A",
"8  c #29002F",
"9  c #221625",
"0  c #270137",
"q  c #2B0E35",
"w  c #24013A",
"e  c #280138",
"r  c #310034",
"t  c #300E31",
"y  c #2B1130",
"u  c #36103D",
"i  c #3A1C3E",
"p  c gray13",
"a  c #232723",
"s  c #2C2C2C",
"d  c #323232",
"f  c #3D373E",
"g  c #3F423F",
"h  c #3C2A40",
"j  c #460352",
"k  c #4F045C",
"l  c #48274E",
"z  c #552C5B",
"x  c #550063",
"c  c #570066",
"v  c #59016A",
"b  c #5B006C",
"n  c #640477",
"m  c #67007A",
"M  c #67007E",
"N  c #68007B",
"B  c #69017C",
"V  c gray25",
"C  c #464646",
"Z  c #6D676E",
"A  c #686969",
"S  c #717171",
"D  c #7C7C7C",
"F  c #CC1816",
"G  c #ED1C24",
"H  c #E34537",
"J  c #790E8B",
"K  c #7B278B",
"L  c #7A2A8B",
"P  c #7F2692",
"I  c #942FA5",
"U  c #982FAA",
"Y  c #9A3BAF",
"T  c #9E3CAE",
"R  c #A236B4",
"E  c #A434B9",
"W  c #A633BD",
"Q  c #AA34BE",
"!  c #A639BC",
"~  c #A646BA",
"^  c #B77EBE",
"/  c #AC47C1",
"(  c #AC42C6",
")  c #B241C4",
"_  c #BA4FCE",
"`  c #B953CB",
"'  c #B558CA",
"]  c #CA60DC",
"[  c #CE7EDC",
"{  c #CF62E1",
"}  c #CF66E1",
"|  c #D063E2",
" . c #D463E5",
".. c #EC74FB",
"X. c #E87CF8",
"o. c #EB7AFE",
"O. c #EC78FC",
"+. c #EB7DFC",
"@. c #ED7CFD",
"#. c #818380",
"$. c gray54",
"%. c #898E8B",
"&. c #8C8A8D",
"*. c gray55",
"=. c gray58",
"-. c #99919E",
";. c gray61",
":. c #A983B4",
">. c #A9A9A9",
",. c #AEAEAE",
"<. c #B1B6AB",
"1. c #AEACB3",
"2. c gray69",
"3. c #B7B7B7",
"4. c gray72",
"5. c #BDBFBE",
"6. c #CE97DC",
"7. c #D394DF",
"8. c #DA8EE9",
"9. c #DA94E8",
"0. c #E687EE",
"q. c #E780FB",
"w. c #F183FD",
"e. c #E3AAF3",
"r. c #E7ACF3",
"t. c #E8ABF2",
"y. c #E8AEF3",
"u. c #EAACF5",
"i. c #EAABFA",
"p. c #ECAAF8",
"a. c #EFADF9",
"s. c #F5A7FE",
"d. c #F2A9FE",
"f. c #F4AAFF",
"g. c #F9A8FF",
"h. c #ECB2F8",
"j. c #C0C0C0",
"k. c LightGray",
"l. c gray87",
"z. c #F4D6F8",
"x. c #F6D8FA",
"c. c gray97",
"v. c gray98",
"b. c #FAFFF9",
"n. c #FEFEF8",
"m. c white",
/* pixels */
"                      R :.p.u.u.u.u.x.x.f E $                   ",
"                    R u.u.u.u.u.u.u.r.x.x.x.R                   ",
"                # X u.u.u.u.3 4 4 4 4 x.x.x.x.o O               ",
"                X u.u.6.l 4 4 4 4 4 i x.x.x.x.x.< :             ",
"              t t.u.z 4 4 4 v c x 4 x.x.x.x.x.x.x.q O           ",
"            !   u.4 4 4 k N w.+.m o...x.x.x.x.6 z.o W           ",
"            o *.4 4 7 N ] o.o.o.o.O.o.q.x.x.4 4 4 b.            ",
"          s.*.*.4 4 N o.o.O.m m o.o.X.o.o.o.N 5 4 m.m.7.        ",
"          E $.*.6 4 B @.N N N e.N m N o.y.O.B N m m.m./         ",
"          R *.*.X 4 7 N N N u.N 4 4 * J o.t.a.B X m.m.(         ",
"            *.*.*.4 4 N m u.h.4 4 4 4 8 o.o.u.u.m.m.m.%         ",
"            *.*.*.6 4 r u.u.4 4 4 4 4 4 _ o.9.u.m.m.m.%         ",
"            *.*.*.#.4 u u.u.4 4 4 4 4 4 b o.N 5.m.m.m.%         ",
"            *.*.$.,.4 u.u.6 4 4 4 4 4 4 c N B m.m.m.m.%         ",
"          T *.*.$.,.>.i.u.6 4 4 4 M B = m m m.m.m.m.m.~         ",
"      o y *.*.*.$.,.,.;.u.u.4 4 1 N N N B m.m.m.m.m.v.v.P .     ",
"      9 Z ,.*.*.*.,.,.,.s p.4 4 2 N N n j.m.m.m.m.m.m.m.V       ",
"        t ,.  *.*.,.,.,.,.,.+         m.m.m.m.m.m.m.  m.L       ",
"        ' 2.,.*.*.*.,.,.,.,.,.m.m.m.m.m.m.m.m.m.m.m.m.v.8.      ",
"        ^ %.*.D   m.p     ,.,.m.m.m.m.m.    , m.p l.c.-.h       ",
"          0.K a *.  m.c.F   ,.m.m.m.m.  H m.m.  m.p K [         ",
"d.          E &.  *.  G G m.  ,.m.v.  m.G G   m.  m.R           ",
"d.Y f.    o *.2.,.*.  ,.,.k.k.,.m.,.,.4.m.m.  m.m.m.m.&     f.Q ",
"d.d.d.) ` *.,.,.,.*.  ,.,.,.,.,.m.m.m.m.m.m.  m.m.m.m.m.8.E g.d.",
"| | { ,.A *.,.,.,.,.  ,.,.,.,.  ,.  m.m.m.m.  m.m.m.m.m.g m.d.} ",
"E | | ,.,.>.,.,.,.,.$.> ,.,.<.  ,.  n.l.m.  m.m.m.m.m.l.m.m.| { ",
"E E E ,.,.,.2.,.,.,.,.;   ,.1.0 e w m.m.    ,.m.m.m.v.m.m.m. .E ",
"E U R ,.,.,.,.;.,.,.,.*.d               S ,.2.m.c.=.v.m.m.m.j I ",
"j j   ,.,.,.,.,.s ,.*.*.*.C           C ,.,.,.,.s m.m.m.m.m.j j ",
"j j ,.,.,.,.,.,.,.,.  - *.,.C       C ,.,.    m.m.m.m.m.m.m.m.j ",
"j @ ,.,.,.,.,.,.,.,.m.v.  $.  *.*.*.*.,.  m.m.m.m.m.m.m.m.m.m.X ",
"j 2.,.,.,.,.,.*.,.,.,.3.m.m.2.*.*.*.  m.m.m.m.m.m.2.,.m.m.m.m.m."
};
